X:1
T:Starlight (Beatson), 11.11.11.11
T:Starlight (Beatson), 11.11.11.11
T:C. S. Beatson, arr. by G. B. Bramley, ca. 1902
T:Public Domain Courtesy of the Cyber Hymnal™
C:C. S. Beatson, arr. by G. B. Bramley, ca. 1902
Z:Public Domain
Z:Courtesy of the Cyber Hymnal™
%%score ( 1 2 ) ( 3 4 )
L:1/8
Q:1/4=110
M:4/4
K:D
V:1 treble 
V:2 treble 
V:3 bass 
V:4 bass 
V:1
 [DF]2 [DF]2 [DA]2 [Fd]2 | [Fc]4 [GB]4 | [DA]2 [DF]2 [EA]2 [CE]2 | [DF]8 | D2 F2 A2 [Fd]2 | %5
 (c2 B2) (A2 [FB]2) | [Ec]2 [CA]2 [Dd]2 [D^G]2 | A8 | G2 [GB]2 [EA]2 [GB]2 | [GB]4 [FA]4 | %10
 [GB]2 [GB]2 [^GB]2 [GB]2 | c8 | [Fd]2 [Fd]2 [Fc]2 [GB]2 | [DA]2 [DA]2 [DA]2 [DG]2 | %14
 [DF]4 (F2 E2) | D8 |] %16
V:2
 x8 | x8 | x8 | x8 | D2 F2 A2 x2 | ^G4 A2 x2 | x8 | (C2 D2 E2 F2) | G2 x6 | x8 | x8 | (A4 G4) | %12
 x8 | x8 | x4 C4 | D8 |] %16
V:3
 [D,A,]2 [D,A,]2 [F,D]2 [B,D]2 | [A,D]4 [G,D]4 | [F,D]2 [D,D]2 [A,,C]2 [A,,A,]2 | [D,A,]8 | %4
 D,2 F,2 A,2 [B,D]2 | [E,D]4 ([F,C]2 [D,F,]2) | [E,A,]2 [E,A,]2 [E,^G,]2 [E,B,]2 | %7
 (A,2 B,2 C2 D2) | [E,C]2 [E,C]2 [A,,C]2 [A,,C]2 | [D,D]4 [D,D]4 | [G,D]2 [G,D]2 [E,E]2 [E,E]2 | %11
 [A,E]8 | [B,D]2 [B,D]2 [A,D]2 [G,D]2 | [F,D]2 [F,=C]2 [G,B,]2 [G,,_B,]2 | (A,2 ^G,2) [A,,=G,]4 | %15
 [D,F,]8 |] %16
V:4
 x8 | x8 | x8 | x8 | D,2 F,2 A,2 x2 | x8 | x8 | A,,8 | x8 | x8 | x8 | x8 | x8 | x8 | A,,4 x4 | %15
 x8 |] %16

